X:1
T:Leaith Harbour. JBut.220
T:Leaith Harbour. JBut.220
T:A Duble Drag
C:A Duble Drag
L:1/8
Q:1/4=140
M:4/4
K:G
V:1 treble 
V:1
 g | (dB)(AG) (ED)(EG) | d2 d>B d3 e | (dB)(AG) (ED)(EG) | e2 ed e3 ::"^NB1" z | dega b2 ag | %7
 d2 dB d3 e | dega b2 ag | e2 ed e3 g | dega b2 ag | d>edB d2 (ef/)g/ | dBAG EDE>G | e2 ed e3 :| %14

